X: 18642
T: I Would Rather Than Ireland
R: waltz
M: 3/4
K: Gminor
.d2.d2 (ga)|(b2d2) .d2|.b2 (c'bag)|^f2 (=ed)(ef)|.g2 .g.a.b.a|
g2 (f<d) (cB)|c2f2e2|d4||(Bc)|(B2_e2)(dc)|f2 (ed)(cB)|c2 (ce)(dc)|
.B2 (AG)(Bc)|d2 {ed^cd} b3a|(gab)(dcB)|(cedcBA)|G4 (Bc)|
(d2e2) (dc)|.f2 (edcB)|.c2 (cedc)|(cB)(AG)(Bc)|
d2 {ed^cd}(b3a)|(gab)(dcB)|(cedc){c}BA|!fermata!G4||

